src/apps/scalable/pioneer_install_icon.svg

<?xml version="1.0" encoding="UTF-8" standalone="no"?>
<svg
   width="128"
   height="128"
   viewBox="0 0 33.866666 33.866668"
   version="1.1"
   id="svg1443"
   inkscape:version="1.1.2 (0a00cf5339, 2022-02-04)"
   sodipodi:docname="pioneer_install_icon.svg"
   xmlns:inkscape="http://www.inkscape.org/namespaces/inkscape"
   xmlns:sodipodi="http://sodipodi.sourceforge.net/DTD/sodipodi-0.dtd"
   xmlns:xlink="http://www.w3.org/1999/xlink"
   xmlns="http://www.w3.org/2000/svg"
   xmlns:svg="http://www.w3.org/2000/svg"
   xmlns:rdf="http://www.w3.org/1999/02/22-rdf-syntax-ns#"
   xmlns:cc="http://creativecommons.org/ns#"
   xmlns:dc="http://purl.org/dc/elements/1.1/">
  <defs
     id="defs1437">
    <linearGradient
       inkscape:collect="always"
       id="linearGradient1651">
      <stop
         style="stop-color:#009fff;stop-opacity:1"
         offset="0"
         id="stop1647" />
      <stop
         style="stop-color:#004aff;stop-opacity:0.99828428"
         offset="1"
         id="stop1649" />
    </linearGradient>
    <linearGradient
       gradientTransform="matrix(0.97573206,0,0,0.97573206,-111.76517,-37.182508)"
       gradientUnits="userSpaceOnUse"
       y2="64.966194"
       x2="132.21078"
       y1="42.151531"
       x1="132.21078"
       id="linearGradient1632"
       xlink:href="#linearGradient1630"
       inkscape:collect="always" />
    <linearGradient
       id="linearGradient1630"
       inkscape:collect="always">
      <stop
         id="stop1626"
         offset="0"
         style="stop-color:#60748f;stop-opacity:0.98431373" />
      <stop
         id="stop1975"
         offset="0.73574573"
         style="stop-color:#455776;stop-opacity:0.99215686;" />
      <stop
         id="stop1628"
         offset="1"
         style="stop-color:#394a6b;stop-opacity:1" />
    </linearGradient>
    <filter
       color-interpolation-filters="sRGB"
       height="1.1311001"
       width="1.1106"
       y="-0.065563001"
       x="-0.055319"
       id="c-9">
      <feGaussianBlur
         id="feGaussianBlur1093"
         stdDeviation="1.1062912" />
    </filter>
    <linearGradient
       gradientUnits="userSpaceOnUse"
       gradientTransform="matrix(0.13235,0,0,0.13075,-32.379,1.0873)"
       y2="269.48999"
       y1="235.14999"
       x2="657.65002"
       x1="319.20999"
       id="a-12">
      <stop
         id="stop1076"
         offset="0"
         stop-color="#e54c18" />
      <stop
         id="stop1078"
         offset="1"
         stop-color="#fec350" />
    </linearGradient>
    <linearGradient
       inkscape:collect="always"
       id="linearGradient2050">
      <stop
         style="stop-color:#6a2b0c;stop-opacity:1;"
         offset="0"
         id="stop2046" />
      <stop
         style="stop-color:#6a2b0c;stop-opacity:0.82352941;"
         offset="0.46019328"
         id="stop2054" />
      <stop
         style="stop-color:#6a2b0c;stop-opacity:0.61960784;"
         offset="0.55980784"
         id="stop2074" />
      <stop
         style="stop-color:#6a2b0c;stop-opacity:0.55294118;"
         offset="0.59674543"
         id="stop2092" />
      <stop
         style="stop-color:#6a2b0c;stop-opacity:0.45882353;"
         offset="0.6603334"
         id="stop2102" />
      <stop
         style="stop-color:#6a2b0c;stop-opacity:0.35294118;"
         offset="0.73342222"
         id="stop2100" />
      <stop
         style="stop-color:#6a2b0c;stop-opacity:0.25882353;"
         offset="0.79290068"
         id="stop2098" />
      <stop
         style="stop-color:#6a2b0c;stop-opacity:0.19215686;"
         offset="0.83187062"
         id="stop2086" />
      <stop
         style="stop-color:#6a2b0c;stop-opacity:0.11372549;"
         offset="0.89167756"
         id="stop2088" />
      <stop
         style="stop-color:#6a2b0c;stop-opacity:0.0627451;"
         offset="0.93840277"
         id="stop2090" />
      <stop
         style="stop-color:#6a2b0c;stop-opacity:0.03921569;"
         offset="0.96329844"
         id="stop2056" />
      <stop
         style="stop-color:#6a2b0c;stop-opacity:0;"
         offset="1"
         id="stop2048" />
    </linearGradient>
    <radialGradient
       inkscape:collect="always"
       xlink:href="#linearGradient2050"
       id="radialGradient2270"
       cx="-571.09357"
       cy="434.78534"
       fx="-571.09357"
       fy="434.78534"
       r="229.44476"
       gradientUnits="userSpaceOnUse"
       gradientTransform="matrix(1.0612895,0,0,1.0612895,400.72106,-182.52731)" />
    <linearGradient
       id="b"
       x2="1"
       gradientTransform="matrix(0.33688162,-19.859257,19.859257,0.33688162,15.949012,26.785076)"
       gradientUnits="userSpaceOnUse">
      <stop
         stop-color="#ff9300"
         offset="0"
         id="stop7" />
      <stop
         stop-color="#ffd702"
         offset="1"
         id="stop9" />
    </linearGradient>
    <linearGradient
       inkscape:collect="always"
       xlink:href="#linearGradient1651"
       id="linearGradient1653"
       x1="14.29407"
       y1="17.573576"
       x2="14.29407"
       y2="32.81377"
       gradientUnits="userSpaceOnUse" />
  </defs>
  <sodipodi:namedview
     id="base"
     pagecolor="#ffffff"
     bordercolor="#666666"
     borderopacity="1.0"
     inkscape:pageopacity="0.0"
     inkscape:pageshadow="2"
     inkscape:zoom="0.97851565"
     inkscape:cx="-101.17365"
     inkscape:cy="-79.201595"
     inkscape:document-units="mm"
     inkscape:current-layer="layer1"
     inkscape:document-rotation="0"
     showgrid="false"
     units="px"
     inkscape:window-width="1920"
     inkscape:window-height="1030"
     inkscape:window-x="0"
     inkscape:window-y="24"
     inkscape:window-maximized="1"
     inkscape:pagecheckerboard="0" />
  <metadata
     id="metadata1440">
    <rdf:RDF>
      <cc:Work
         rdf:about="">
        <dc:format>image/svg+xml</dc:format>
        <dc:type
           rdf:resource="http://purl.org/dc/dcmitype/StillImage" />
      </cc:Work>
    </rdf:RDF>
  </metadata>
  <g
     inkscape:label="Capa 1"
     inkscape:groupmode="layer"
     id="layer1">
    <g
       style="opacity:0.295"
       transform="matrix(0.97573206,0,0,0.97573206,-65.737228,-37.182508)"
       id="g1702">
      <rect
         ry="6.6098609"
         rx="6.6098609"
         y="40.709618"
         x="69.839508"
         height="29.810888"
         width="29.810888"
         id="rect1634"
         style="fill:none;fill-opacity:1;stroke:#000000;stroke-width:0.1;stroke-linecap:round;stroke-linejoin:round;stroke-miterlimit:4;stroke-dasharray:none;stroke-opacity:0.02" />
      <rect
         style="fill:none;fill-opacity:1;stroke:#000000;stroke-width:0.2;stroke-linecap:round;stroke-linejoin:round;stroke-miterlimit:4;stroke-dasharray:none;stroke-opacity:0.02"
         id="rect1638"
         width="29.810888"
         height="29.810888"
         x="69.839508"
         y="40.709618"
         rx="6.6098609"
         ry="6.6098609" />
      <rect
         ry="6.6098609"
         rx="6.6098609"
         y="40.709618"
         x="69.839508"
         height="29.810888"
         width="29.810888"
         id="rect1640"
         style="fill:none;fill-opacity:1;stroke:#000000;stroke-width:0.3;stroke-linecap:round;stroke-linejoin:round;stroke-miterlimit:4;stroke-dasharray:none;stroke-opacity:0.02" />
      <rect
         style="fill:none;fill-opacity:1;stroke:#000000;stroke-width:0.4;stroke-linecap:round;stroke-linejoin:round;stroke-miterlimit:4;stroke-dasharray:none;stroke-opacity:0.02"
         id="rect1642"
         width="29.810888"
         height="29.810888"
         x="69.839508"
         y="40.709618"
         rx="6.6098609"
         ry="6.6098609" />
      <rect
         ry="6.6098609"
         rx="6.6098609"
         y="40.709618"
         x="69.839508"
         height="29.810888"
         width="29.810888"
         id="rect1644"
         style="fill:none;fill-opacity:1;stroke:#000000;stroke-width:0.5;stroke-linecap:round;stroke-linejoin:round;stroke-miterlimit:4;stroke-dasharray:none;stroke-opacity:0.02" />
      <rect
         style="fill:none;fill-opacity:1;stroke:#000000;stroke-width:0.6;stroke-linecap:round;stroke-linejoin:round;stroke-miterlimit:4;stroke-dasharray:none;stroke-opacity:0.02"
         id="rect1646"
         width="29.810888"
         height="29.810888"
         x="69.839508"
         y="40.709618"
         rx="6.6098609"
         ry="6.6098609" />
      <rect
         ry="6.6098609"
         rx="6.6098609"
         y="40.709618"
         x="69.839508"
         height="29.810888"
         width="29.810888"
         id="rect1648"
         style="fill:none;fill-opacity:1;stroke:#000000;stroke-width:0.7;stroke-linecap:round;stroke-linejoin:round;stroke-miterlimit:4;stroke-dasharray:none;stroke-opacity:0.02" />
      <rect
         style="fill:none;fill-opacity:1;stroke:#000000;stroke-width:0.8;stroke-linecap:round;stroke-linejoin:round;stroke-miterlimit:4;stroke-dasharray:none;stroke-opacity:0.02"
         id="rect1650"
         width="29.810888"
         height="29.810888"
         x="69.839508"
         y="40.709618"
         rx="6.6098609"
         ry="6.6098609" />
      <rect
         ry="6.6098609"
         rx="6.6098609"
         y="40.709618"
         x="69.839508"
         height="29.810888"
         width="29.810888"
         id="rect1652"
         style="fill:none;fill-opacity:1;stroke:#000000;stroke-width:1;stroke-linecap:round;stroke-linejoin:round;stroke-miterlimit:4;stroke-dasharray:none;stroke-opacity:0.02" />
      <rect
         style="fill:none;fill-opacity:1;stroke:#000000;stroke-width:1.2;stroke-linecap:round;stroke-linejoin:round;stroke-miterlimit:4;stroke-dasharray:none;stroke-opacity:0.02"
         id="rect1654"
         width="29.810888"
         height="29.810888"
         x="69.839508"
         y="40.709618"
         rx="6.6098609"
         ry="6.6098609" />
      <rect
         ry="6.6098609"
         rx="6.6098609"
         y="40.709618"
         x="69.839508"
         height="29.810888"
         width="29.810888"
         id="rect1656"
         style="fill:none;fill-opacity:1;stroke:#000000;stroke-width:1.4;stroke-linecap:round;stroke-linejoin:round;stroke-miterlimit:4;stroke-dasharray:none;stroke-opacity:0.02" />
      <rect
         style="fill:none;fill-opacity:1;stroke:#000000;stroke-width:1.6;stroke-linecap:round;stroke-linejoin:round;stroke-miterlimit:4;stroke-dasharray:none;stroke-opacity:0.02"
         id="rect1658"
         width="29.810888"
         height="29.810888"
         x="69.839508"
         y="40.709618"
         rx="6.6098609"
         ry="6.6098609" />
      <rect
         ry="6.6098609"
         rx="6.6098609"
         y="40.709618"
         x="69.839508"
         height="29.810888"
         width="29.810888"
         id="rect1660"
         style="fill:none;fill-opacity:1;stroke:#000000;stroke-width:1.8;stroke-linecap:round;stroke-linejoin:round;stroke-miterlimit:4;stroke-dasharray:none;stroke-opacity:0.02" />
      <rect
         style="fill:none;fill-opacity:1;stroke:#000000;stroke-width:2;stroke-linecap:round;stroke-linejoin:round;stroke-miterlimit:4;stroke-dasharray:none;stroke-opacity:0.02"
         id="rect1662"
         width="29.810888"
         height="29.810888"
         x="69.839508"
         y="40.709618"
         rx="6.6098609"
         ry="6.6098609" />
      <rect
         ry="6.6098609"
         rx="6.6098609"
         y="40.709618"
         x="69.839508"
         height="29.810888"
         width="29.810888"
         id="rect1664"
         style="fill:none;fill-opacity:1;stroke:#000000;stroke-width:2.2;stroke-linecap:round;stroke-linejoin:round;stroke-miterlimit:4;stroke-dasharray:none;stroke-opacity:0.02" />
      <rect
         style="fill:none;fill-opacity:1;stroke:#000000;stroke-width:2.6;stroke-linecap:round;stroke-linejoin:round;stroke-miterlimit:4;stroke-dasharray:none;stroke-opacity:0.02"
         id="rect1666"
         width="29.810888"
         height="29.810888"
         x="69.839508"
         y="40.709618"
         rx="6.6098609"
         ry="6.6098609" />
      <rect
         ry="6.6098609"
         rx="6.6098609"
         y="40.709618"
         x="69.839508"
         height="29.810888"
         width="29.810888"
         id="rect1668"
         style="fill:none;fill-opacity:1;stroke:#000000;stroke-width:3;stroke-linecap:round;stroke-linejoin:round;stroke-miterlimit:4;stroke-dasharray:none;stroke-opacity:0.02" />
      <rect
         style="fill:none;fill-opacity:1;stroke:#000000;stroke-width:3.4;stroke-linecap:round;stroke-linejoin:round;stroke-miterlimit:4;stroke-dasharray:none;stroke-opacity:0.02"
         id="rect1670"
         width="29.810888"
         height="29.810888"
         x="69.839508"
         y="40.709618"
         rx="6.6098609"
         ry="6.6098609" />
      <rect
         ry="6.6098609"
         rx="6.6098609"
         y="40.709618"
         x="69.839508"
         height="29.810888"
         width="29.810888"
         id="rect1672"
         style="fill:none;fill-opacity:1;stroke:#000000;stroke-width:3.8;stroke-linecap:round;stroke-linejoin:round;stroke-miterlimit:4;stroke-dasharray:none;stroke-opacity:0.02" />
      <rect
         style="fill:none;fill-opacity:1;stroke:#000000;stroke-width:4.2;stroke-linecap:round;stroke-linejoin:round;stroke-miterlimit:4;stroke-dasharray:none;stroke-opacity:0.02"
         id="rect1674"
         width="29.810888"
         height="29.810888"
         x="69.839508"
         y="40.709618"
         rx="6.6098609"
         ry="6.6098609" />
      <rect
         ry="6.6098609"
         rx="6.6098609"
         y="40.709618"
         x="69.839508"
         height="29.810888"
         width="29.810888"
         id="rect1676"
         style="fill:none;fill-opacity:1;stroke:#000000;stroke-width:4.6;stroke-linecap:round;stroke-linejoin:round;stroke-miterlimit:4;stroke-dasharray:none;stroke-opacity:0.02" />
      <rect
         style="fill:none;fill-opacity:1;stroke:#000000;stroke-width:5;stroke-linecap:round;stroke-linejoin:round;stroke-miterlimit:4;stroke-dasharray:none;stroke-opacity:0.02"
         id="rect1678"
         width="29.810888"
         height="29.810888"
         x="69.839508"
         y="40.709618"
         rx="6.6098609"
         ry="6.6098609" />
    </g>
    <rect
       ry="6.4494534"
       rx="6.4494534"
       y="2.5391712"
       x="2.4074187"
       height="29.087439"
       width="29.087439"
       id="rect849"
       style="fill:url(#linearGradient1632);fill-opacity:1;stroke-width:2.68768;stroke-linecap:round;stroke-linejoin:round" />
    <path
       id="rect1131"
       style="fill:url(#linearGradient1653);stroke-width:2.68768;stroke-linecap:round;stroke-linejoin:round;fill-opacity:1"
       d="m 31.494857,23.15359 v 2.023566 c 0,3.572998 -2.876456,6.449454 -6.449453,6.449454 H 8.8568721 c -3.5729972,0 -6.4494534,-2.876456 -6.4494534,-6.449454 V 23.15359 Z"
       sodipodi:nodetypes="csssscc" />
    <path
       style="fill:#ffffff;fill-opacity:0.977854;stroke-width:0.383496"
       d="m 17.328847,7.4092671 c -2.183821,-0.093984 -4.135542,1.2565296 -5.472329,2.8750339 -1.304056,1.684631 -2.1232287,3.800718 -2.1120417,5.943163 0.0479,1.362658 0.5609967,2.905469 1.8949587,3.505603 1.102753,0.49731 2.358182,0.319383 3.516628,0.160787 1.761064,-0.396713 3.140989,-1.67499 4.238838,-3.044437 0.209878,-0.340715 0.250142,-0.18755 0.232001,0.135681 0.0549,0.740721 -0.0061,1.559939 0.432407,2.196749 0.619686,0.742818 1.789044,0.45617 2.402345,-0.146093 0.710586,-0.725234 1.192994,-1.673278 1.451254,-2.648791 -0.647626,-0.121072 -0.724826,0.993395 -1.260684,1.273307 -0.501754,0.530892 -1.714408,0.729504 -1.943971,-0.164088 -0.206898,-0.755328 -0.125057,-1.546597 -0.137088,-2.320759 1.31195,-2.469594 2.635829,-5.2969404 3.937811,-7.7713392 H 22.562722 C 21.913498,8.6893706 21.221155,10.208232 20.54747,11.480825 20.339301,10.230821 20.164554,8.8226203 19.108243,7.975676 18.603353,7.5836894 17.957003,7.4347939 17.328847,7.409251 Z m -0.263754,0.8956261 c 1.28222,-0.056806 2.200267,1.1251716 2.438718,2.2789148 0.18499,0.758988 0.196999,1.543238 0.255495,2.318422 -0.967793,1.788876 -1.91612,3.632436 -3.340245,5.108357 -0.734749,0.68876 -1.745505,1.376746 -2.801344,1.122666 -1.00799,-0.248077 -1.535428,-1.311443 -1.528972,-2.283467 -0.02239,-1.205739 0.397219,-2.364706 0.698293,-3.517775 0.522771,-1.799897 1.34204,-3.6774328 3.010457,-4.6949524 0.379416,-0.2356857 0.825069,-0.3374006 1.267598,-0.3321654 z"
       id="path8" />
    <path
       id="path3144"
       style="fill:#253e78;fill-opacity:0.369946;stroke-width:13;stroke-linecap:round;stroke-linejoin:round"
       d="M 9.0996094 87.509766 L 9.0996094 95.158203 C 9.0996094 108.66245 19.970368 119.5332 33.474609 119.5332 L 45.695312 119.5332 L 45.695312 87.509766 L 9.0996094 87.509766 z M 82.292969 87.509766 L 82.292969 119.5332 L 94.660156 119.5332 C 107.25607 119.5332 117.55931 110.07458 118.88867 97.84375 L 118.88867 87.509766 L 82.292969 87.509766 z "
       transform="scale(0.26458333)" />
  </g>
</svg>

<?xml version="1.0" encoding="UTF-8"?>
<svg id="svg1443" width="128" height="128" version="1.1" viewBox="0 0 33.867 33.867" xmlns="http://www.w3.org/2000/svg" xmlns:cc="http://creativecommons.org/ns#" xmlns:dc="http://purl.org/dc/elements/1.1/" xmlns:rdf="http://www.w3.org/1999/02/22-rdf-syntax-ns#" xmlns:xlink="http://www.w3.org/1999/xlink">
 <defs id="defs1437">
  <linearGradient id="linearGradient1632" x1="132.21" x2="132.21" y1="42.152" y2="64.966" gradientTransform="matrix(.97573 0 0 .97573 -111.77 -37.183)" gradientUnits="userSpaceOnUse">
   <stop id="stop1626" stop-color="#60748f" stop-opacity=".98431" offset="0"/>
   <stop id="stop1975" stop-color="#455776" stop-opacity=".99216" offset=".73575"/>
   <stop id="stop1628" stop-color="#394a6b" offset="1"/>
  </linearGradient>
  <linearGradient id="linearGradient1653" x1="14.294" x2="14.294" y1="17.574" y2="32.814" gradientUnits="userSpaceOnUse">
   <stop id="stop1647" stop-color="#009fff" offset="0"/>
   <stop id="stop1649" stop-color="#004aff" stop-opacity=".99828" offset="1"/>
  </linearGradient>
 </defs>
 <metadata id="metadata1440">
  <rdf:RDF>
   <cc:Work rdf:about="">
    <dc:format>image/svg+xml</dc:format>
    <dc:type rdf:resource="http://purl.org/dc/dcmitype/StillImage"/>
   </cc:Work>
  </rdf:RDF>
 </metadata>
 <g id="layer1">
  <g id="g1702" transform="matrix(.97573 0 0 .97573 -65.737 -37.183)" fill="none" opacity=".295" stroke="#000" stroke-linecap="round" stroke-linejoin="round" stroke-opacity=".02">
   <rect id="rect1634" x="69.84" y="40.71" width="29.811" height="29.811" rx="6.6099" ry="6.6099" stroke-width=".1"/>
   <rect id="rect1638" x="69.84" y="40.71" width="29.811" height="29.811" rx="6.6099" ry="6.6099" stroke-width=".2"/>
   <rect id="rect1640" x="69.84" y="40.71" width="29.811" height="29.811" rx="6.6099" ry="6.6099" stroke-width=".3"/>
   <rect id="rect1642" x="69.84" y="40.71" width="29.811" height="29.811" rx="6.6099" ry="6.6099" stroke-width=".4"/>
   <rect id="rect1644" x="69.84" y="40.71" width="29.811" height="29.811" rx="6.6099" ry="6.6099" stroke-width=".5"/>
   <rect id="rect1646" x="69.84" y="40.71" width="29.811" height="29.811" rx="6.6099" ry="6.6099" stroke-width=".6"/>
   <rect id="rect1648" x="69.84" y="40.71" width="29.811" height="29.811" rx="6.6099" ry="6.6099" stroke-width=".7"/>
   <rect id="rect1650" x="69.84" y="40.71" width="29.811" height="29.811" rx="6.6099" ry="6.6099" stroke-width=".8"/>
   <rect id="rect1652" x="69.84" y="40.71" width="29.811" height="29.811" rx="6.6099" ry="6.6099"/>
   <rect id="rect1654" x="69.84" y="40.71" width="29.811" height="29.811" rx="6.6099" ry="6.6099" stroke-width="1.2"/>
   <rect id="rect1656" x="69.84" y="40.71" width="29.811" height="29.811" rx="6.6099" ry="6.6099" stroke-width="1.4"/>
   <rect id="rect1658" x="69.84" y="40.71" width="29.811" height="29.811" rx="6.6099" ry="6.6099" stroke-width="1.6"/>
   <rect id="rect1660" x="69.84" y="40.71" width="29.811" height="29.811" rx="6.6099" ry="6.6099" stroke-width="1.8"/>
   <rect id="rect1662" x="69.84" y="40.71" width="29.811" height="29.811" rx="6.6099" ry="6.6099" stroke-width="2"/>
   <rect id="rect1664" x="69.84" y="40.71" width="29.811" height="29.811" rx="6.6099" ry="6.6099" stroke-width="2.2"/>
   <rect id="rect1666" x="69.84" y="40.71" width="29.811" height="29.811" rx="6.6099" ry="6.6099" stroke-width="2.6"/>
   <rect id="rect1668" x="69.84" y="40.71" width="29.811" height="29.811" rx="6.6099" ry="6.6099" stroke-width="3"/>
   <rect id="rect1670" x="69.84" y="40.71" width="29.811" height="29.811" rx="6.6099" ry="6.6099" stroke-width="3.4"/>
   <rect id="rect1672" x="69.84" y="40.71" width="29.811" height="29.811" rx="6.6099" ry="6.6099" stroke-width="3.8"/>
   <rect id="rect1674" x="69.84" y="40.71" width="29.811" height="29.811" rx="6.6099" ry="6.6099" stroke-width="4.2"/>
   <rect id="rect1676" x="69.84" y="40.71" width="29.811" height="29.811" rx="6.6099" ry="6.6099" stroke-width="4.6"/>
   <rect id="rect1678" x="69.84" y="40.71" width="29.811" height="29.811" rx="6.6099" ry="6.6099" stroke-width="5"/>
  </g>
  <rect id="rect849" x="2.4074" y="2.5392" width="29.087" height="29.087" rx="6.4495" ry="6.4495" fill="url(#linearGradient1632)" stroke-linecap="round" stroke-linejoin="round" stroke-width="2.6877"/>
  <path id="rect1131" d="m31.495 23.154v2.0236c0 3.573-2.8765 6.4495-6.4495 6.4495h-16.189c-3.573 0-6.4495-2.8765-6.4495-6.4495v-2.0236z" fill="url(#linearGradient1653)" stroke-linecap="round" stroke-linejoin="round" stroke-width="2.6877"/>
  <path id="path8" d="m17.329 7.4093c-2.1838-0.093984-4.1355 1.2565-5.4723 2.875-1.3041 1.6846-2.1232 3.8007-2.112 5.9432 0.0479 1.3627 0.561 2.9055 1.895 3.5056 1.1028 0.49731 2.3582 0.31938 3.5166 0.16079 1.7611-0.39671 3.141-1.675 4.2388-3.0444 0.20988-0.34072 0.25014-0.18755 0.232 0.13568 0.0549 0.74072-0.0061 1.5599 0.43241 2.1967 0.61969 0.74282 1.789 0.45617 2.4023-0.14609 0.71059-0.72523 1.193-1.6733 1.4513-2.6488-0.64763-0.12107-0.72483 0.9934-1.2607 1.2733-0.50175 0.53089-1.7144 0.7295-1.944-0.16409-0.2069-0.75533-0.12506-1.5466-0.13709-2.3208 1.312-2.4696 2.6358-5.2969 3.9378-7.7713h-1.9463c-0.64922 1.2853-1.3416 2.8041-2.0153 4.0767-0.20817-1.25-0.38292-2.6582-1.4392-3.5051-0.50489-0.39199-1.1512-0.54088-1.7794-0.56642zm-0.26375 0.89563c1.2822-0.056806 2.2003 1.1252 2.4387 2.2789 0.18499 0.75899 0.197 1.5432 0.2555 2.3184-0.96779 1.7889-1.9161 3.6324-3.3402 5.1084-0.73475 0.68876-1.7455 1.3767-2.8013 1.1227-1.008-0.24808-1.5354-1.3114-1.529-2.2835-0.02239-1.2057 0.39722-2.3647 0.69829-3.5178 0.52277-1.7999 1.342-3.6774 3.0105-4.695 0.37942-0.23569 0.82507-0.3374 1.2676-0.33217z" fill="#fff" fill-opacity=".97785" stroke-width=".3835"/>
  <path id="path3144" transform="scale(.26458)" d="m9.0996 87.51v7.6484c0 13.504 10.871 24.375 24.375 24.375h12.221v-32.023h-36.596zm73.193 0v32.023h12.367c12.596 0 22.899-9.4586 24.229-21.689v-10.334h-36.596z" fill="#253e78" fill-opacity=".36995" stroke-linecap="round" stroke-linejoin="round" stroke-width="13"/>
 </g>
</svg>
